X:1
T:Blind Leary
M:6/8
L:1/8
R:March or Jig
S:William Morris copybook (1776-1777)
N:Morris was a fife player with Captain William
N:Tucker's Company, First Regiment, Hunterdon
N:County Militia, New Jersey.
K:D
d3 F2G|A2d AGF|G2d F2d|e2d cBA|
Td3 F2G|A2d AGF|E2g f2e|Td3 d2:|
|:A|d3 g2g|a2g fed|B2B Bcd|efd cBA|
d3 f2g|a2g fed|B2g f2e|Td3 d2:|]

